src/assets/outline/Woman.svg

<?xml version="1.0" encoding="UTF-8"?>
<svg width="24" height="24" viewBox="0 0 24 24" xmlns="http://www.w3.org/2000/svg">
 <path d="m12 16.75c-4.27 0-7.75-3.48-7.75-7.75s3.48-7.75 7.75-7.75 7.75 3.48 7.75 7.75-3.48 7.75-7.75 7.75zm0-14c-3.45 0-6.25 2.8-6.25 6.25s2.8 6.25 6.25 6.25 6.25-2.8 6.25-6.25-2.8-6.25-6.25-6.25z"/>
 <path d="m12 22.75c-0.41 0-0.75-0.34-0.75-0.75v-6c0-0.41 0.34-0.75 0.75-0.75s0.75 0.34 0.75 0.75v6c0 0.41-0.34 0.75-0.75 0.75z"/>
 <path d="m15 19.75h-6c-0.41 0-0.75-0.34-0.75-0.75s0.34-0.75 0.75-0.75h6c0.41 0 0.75 0.34 0.75 0.75s-0.34 0.75-0.75 0.75z"/>
</svg>

<svg width="24" height="24" viewBox="0 0 24 24"  xmlns="http://www.w3.org/2000/svg">
<path d="M12 16.75C7.73 16.75 4.25 13.27 4.25 9C4.25 4.73 7.73 1.25 12 1.25C16.27 1.25 19.75 4.73 19.75 9C19.75 13.27 16.27 16.75 12 16.75ZM12 2.75C8.55 2.75 5.75 5.55 5.75 9C5.75 12.45 8.55 15.25 12 15.25C15.45 15.25 18.25 12.45 18.25 9C18.25 5.55 15.45 2.75 12 2.75Z" />
<path d="M12 22.75C11.59 22.75 11.25 22.41 11.25 22V16C11.25 15.59 11.59 15.25 12 15.25C12.41 15.25 12.75 15.59 12.75 16V22C12.75 22.41 12.41 22.75 12 22.75Z" />
<path d="M15 19.75H9C8.59 19.75 8.25 19.41 8.25 19C8.25 18.59 8.59 18.25 9 18.25H15C15.41 18.25 15.75 18.59 15.75 19C15.75 19.41 15.41 19.75 15 19.75Z" />
</svg>
